X:1
T:Cop Show Drums
M:4/4
L:1/16
Q:1/4=105
K:C
%%MIDI channel 10
% Kick=C1 (C,,), Snare=D1 (D,,), Closed HH=F#1 (^F,,), Open HH=A#1 (^A,,)
|: C,,2^F,,2 ^F,,2^F,,2 D,,2^F,,2 ^F,,2^A,,2 | C,,2^F,,2 ^F,,2^F,,2 D,,2^F,,2 ^F,,2^F,,2 |
C,,2^F,,2 ^F,,2^F,,2 D,,2^F,,2 ^F,,2^A,,2 | C,,2^F,,2 ^F,,2^F,,2 D,,2^F,,2 ^F,,2^F,,2 |
C,,2^F,,2 ^F,,2^F,,2 D,,2^F,,2 ^F,,2^A,,2 | C,,2^F,,2 ^F,,2^F,,2 D,,2^F,,2 ^F,,2^F,,2 |
C,,2^F,,2 ^F,,2^F,,2 D,,2^F,,2 ^F,,2^A,,2 | C,,2^F,,2 ^F,,2^F,,2 D,,4 D,,4 :|
